icon-themes/breeze_svg/cmd/32/arrowshapes.circular-arrow.svg

<svg viewBox="0 0 32 32" xmlns="http://www.w3.org/2000/svg"><path d="m15 8a10 10 0 0 0 -10 10h4a6 6 0 0 1 6-6 6 6 0 0 1 6 6h-2l4 4 4-4h-2a10 10 0 0 0 -10-10z" fill="#4d4d4d"/></svg>

<svg xmlns="http://www.w3.org/2000/svg" viewBox="0 0 32 32">
 <path 
     style="fill:#4d4d4d" 
     d="M 15 8 A 10 10 0 0 0 5 18 L 9 18 A 6 6 0 0 1 15 12 A 6 6 0 0 1 21 18 L 19 18 L 23 22 L 27 18 L 25 18 A 10 10 0 0 0 15 8 z "
     />
</svg>
